assets/images/loader/item-1.svg

<svg width="145" height="145" viewBox="0 0 145 145" fill="none" xmlns="http://www.w3.org/2000/svg">
<rect x="72.4805" width="102.503" height="102.503" rx="5" transform="rotate(45 72.4805 0)" fill="#001AA5"/>
<circle cx="73.2289" cy="73.2309" r="28.1273" stroke="white"/>
<circle cx="73.2257" cy="73.2306" r="20.6593" stroke="#0029FF"/>
<circle r="6.968" transform="matrix(-1 0 0 1 72.5125 22.3362)" stroke="white"/>
<circle r="6.968" transform="matrix(-1 0 0 1 72.5125 120.835)" stroke="white"/>
<circle r="6.968" transform="matrix(-1 0 0 1 122.692 72.5144)" stroke="white"/>
<circle r="6.968" transform="matrix(-1 0 0 1 20.4773 72.5144)" stroke="white"/>
<path d="M40.7864 49.8049L37.2867 53.3046L41.0001 57.0179L39.9202 58.0978L31.5117 49.6894L36.6746 44.5265L37.5871 45.439L33.5041 49.5219L36.3801 52.3979L39.8797 48.8982L40.7864 49.8049ZM45.0368 45.1733L45.1639 47.1715L48.0052 50.0128L46.9137 51.1043L38.5053 42.6958L39.5968 41.6044L43.7028 45.7104L43.5007 43.8797L42.877 38.3242L44.1764 37.0248L44.9156 43.6429L52.7812 45.2369L51.4817 46.5362L45.0368 45.1733ZM54.3289 41.8758L58.4406 37.764L59.3474 38.6706L54.1672 43.8509L45.7587 35.4424L46.8271 34.374L54.3289 41.8758Z" fill="#0029FF"/>
</svg>

<svg width="145" height="145" fill="none" xmlns="http://www.w3.org/2000/svg"><rect x="72.481" width="102.503" height="102.503" rx="5" transform="rotate(45 72.48 0)" fill="#001AA5"/><circle cx="73.229" cy="73.231" r="28.127" stroke="#fff"/><circle cx="73.226" cy="73.231" r="20.659" stroke="#0029FF"/><circle r="6.968" transform="matrix(-1 0 0 1 72.513 22.336)" stroke="#fff"/><circle r="6.968" transform="matrix(-1 0 0 1 72.513 120.835)" stroke="#fff"/><circle r="6.968" transform="matrix(-1 0 0 1 122.692 72.514)" stroke="#fff"/><circle r="6.968" transform="matrix(-1 0 0 1 20.477 72.514)" stroke="#fff"/><path d="M40.786 49.805l-3.5 3.5L41 57.018l-1.08 1.08-8.408-8.409 5.163-5.163.912.913-4.083 4.083 2.876 2.876 3.5-3.5.906.907zm4.25-4.632l.128 1.998 2.841 2.842-1.091 1.091-8.409-8.408 1.092-1.092 4.106 4.106-.202-1.83-.624-5.556 1.3-1.3.739 6.619 7.865 1.594-1.3 1.3-6.444-1.364zm9.293-3.297l4.112-4.112.906.907-5.18 5.18-8.408-8.409 1.068-1.068 7.502 7.502z" fill="#0029FF"/></svg>
